flaticon/constructions/chainsaw.svg

<svg xmlns="http://www.w3.org/2000/svg" width="32" height="32" viewBox="0 0 24 24">
    <path d="M 7.601562 14.601562 L 2.398438 14.601562 C 2.160156 14.601562 2 14.761719 2 15 C 2 15.238281 2.160156 15.398438 2.398438 15.398438 L 7.601562 15.398438 C 7.839844 15.398438 8 15.238281 8 15 C 8 14.761719 7.839844 14.601562 7.601562 14.601562 Z M 7.601562 14.601562"/>
    <path d="M 23.359375 13.519531 L 19.039062 10.28125 C 19.011719 10.261719 18.980469 10.246094 18.949219 10.230469 C 18.511719 9.265625 17.542969 8.601562 16.398438 8.601562 L 14 8.601562 L 14 7.398438 C 14 6.519531 13.28125 5.800781 12.398438 5.800781 C 11.519531 5.800781 10.800781 6.519531 10.800781 7.398438 L 10.800781 8.601562 C 9.441406 8.601562 8.800781 10.761719 8.800781 12.199219 L 8.800781 12.601562 L 2.398438 12.601562 C 1.078125 12.601562 0 13.679688 0 15 C 0 16.320312 1.078125 17.398438 2.398438 17.398438 L 8.863281 17.398438 C 9.023438 17.875 9.460938 18.199219 10 18.199219 L 17.601562 18.199219 C 18.1875 18.199219 18.707031 17.878906 18.984375 17.398438 L 22.800781 17.398438 C 23.480469 17.398438 24 16.878906 24 16.199219 L 24 14.800781 C 24 14.28125 23.761719 13.800781 23.359375 13.519531 Z M 19.199219 13.398438 L 21.320312 15 L 19.199219 15 Z M 11.601562 7.398438 C 11.601562 6.960938 11.960938 6.601562 12.398438 6.601562 C 12.839844 6.601562 13.199219 6.960938 13.199219 7.398438 L 13.199219 8.601562 L 11.601562 8.601562 Z M 0.800781 15 C 0.800781 14.121094 1.519531 13.398438 2.398438 13.398438 L 8.800781 13.398438 L 8.800781 16.601562 L 2.398438 16.601562 C 1.519531 16.601562 0.800781 15.878906 0.800781 15 Z M 12.800781 17.398438 L 12.800781 13.398438 L 16.199219 13.398438 L 16.800781 14.320312 L 16.800781 15.320312 L 16.121094 17.398438 Z M 17.601562 17.398438 L 16.933594 17.398438 L 17.558594 15.519531 C 17.601562 15.480469 17.601562 15.441406 17.601562 15.398438 L 17.601562 14.199219 C 17.601562 14.121094 17.601562 14.039062 17.519531 13.960938 L 16.71875 12.761719 C 16.640625 12.679688 16.519531 12.601562 16.398438 12.601562 L 14.800781 12.601562 L 14.800781 12.199219 L 15.199219 12.199219 C 15.441406 12.199219 15.601562 12.039062 15.601562 11.800781 C 15.601562 11.558594 15.441406 11.398438 15.199219 11.398438 L 13.601562 11.398438 C 13.359375 11.398438 13.199219 11.558594 13.199219 11.800781 C 13.199219 12.039062 13.359375 12.199219 13.601562 12.199219 L 14 12.199219 L 14 12.601562 L 12.398438 12.601562 C 12.160156 12.601562 12 12.761719 12 13 L 12 17.398438 L 10 17.398438 C 9.761719 17.398438 9.601562 17.238281 9.601562 17 L 9.601562 12.199219 C 9.601562 10.921875 10.160156 9.398438 10.800781 9.398438 L 10.800781 10.601562 C 10.800781 10.839844 10.960938 11 11.199219 11 C 11.441406 11 11.601562 10.839844 11.601562 10.601562 L 11.601562 9.398438 L 16.398438 9.398438 C 17.519531 9.398438 18.398438 10.28125 18.398438 11.398438 L 18.398438 16.601562 C 18.398438 17.039062 18.039062 17.398438 17.601562 17.398438 Z M 23.199219 16.199219 C 23.199219 16.398438 23.039062 16.601562 22.800781 16.601562 L 19.199219 16.601562 L 19.199219 15.800781 L 22 15.800781 C 22.238281 15.800781 22.398438 15.640625 22.398438 15.398438 L 22.398438 15 C 22.398438 14.878906 22.359375 14.761719 22.238281 14.679688 L 19.199219 12.398438 L 19.199219 11.398438 L 22.878906 14.160156 C 23.078125 14.320312 23.199219 14.558594 23.199219 14.800781 Z M 23.199219 16.199219"/>
    <path d="M15.199219 14.199219L14 14.199219C13.761719 14.199219 13.601562 14.359375 13.601562 14.601562 13.601562 14.839844 13.761719 15 14 15L15.199219 15C15.441406 15 15.601562 14.839844 15.601562 14.601562 15.601562 14.359375 15.441406 14.199219 15.199219 14.199219zM15.199219 15.800781L14 15.800781C13.761719 15.800781 13.601562 15.960938 13.601562 16.199219 13.601562 16.441406 13.761719 16.601562 14 16.601562L15.199219 16.601562C15.441406 16.601562 15.601562 16.441406 15.601562 16.199219 15.601562 15.960938 15.441406 15.800781 15.199219 15.800781zM15.199219 15.800781"/>
</svg>

<svg xmlns="http://www.w3.org/2000/svg" width="32" height="32" viewBox="0 0 24 24">
    <path d="M7.602 14.602H2.398c-.238 0-.398.16-.398.398 0 .238.16.398.398.398h5.204c.238 0 .398-.16.398-.398 0-.238-.16-.398-.398-.398zm0 0"/>
    <path d="M23.36 13.52l-4.32-3.239c-.028-.02-.06-.035-.09-.05a2.78 2.78 0 0 0-2.552-1.63H14V7.399c0-.878-.719-1.597-1.602-1.597-.878 0-1.597.719-1.597 1.597v1.204c-1.36 0-2 2.16-2 3.597v.403H2.398A2.404 2.404 0 0 0 0 15a2.404 2.404 0 0 0 2.398 2.398h6.465c.16.477.598.801 1.137.801h7.602c.585 0 1.105-.32 1.382-.8h3.817c.68 0 1.199-.52 1.199-1.2v-1.398c0-.52-.238-1-.64-1.281zm-4.16-.122L21.32 15H19.2zm-7.598-6a.8.8 0 0 1 .796-.796c.442 0 .801.359.801.796v1.204h-1.597zM.8 15c0-.879.719-1.602 1.597-1.602h6.403v3.204H2.398A1.605 1.605 0 0 1 .801 15zm12 2.398v-4h3.398l.602.922v1l-.68 2.078zm4.8 0h-.667l.625-1.878c.043-.04.043-.079.043-.122V14.2c0-.078 0-.16-.082-.238l-.801-1.2c-.078-.081-.2-.16-.32-.16H14.8V12.2h.398c.242 0 .403-.16.403-.398 0-.242-.16-.403-.403-.403h-1.597c-.243 0-.403.16-.403.403 0 .238.16.398.403.398H14v.403h-1.602c-.238 0-.398.16-.398.398v4.398h-2c-.238 0-.398-.16-.398-.398v-4.8c0-1.278.558-2.802 1.199-2.802v1.204c0 .238.16.398.398.398.242 0 .403-.16.403-.398V9.398h4.796c1.122 0 2 .883 2 2v5.204a.8.8 0 0 1-.796.796zM23.2 16.2c0 .2-.16.403-.398.403h-3.602V15.8H22c.238 0 .398-.16.398-.403V15a.363.363 0 0 0-.16-.32L19.2 12.398v-1l3.68 2.762c.2.16.32.399.32.64zm0 0"/>
    <path d="M15.2 14.2H14c-.238 0-.398.16-.398.402 0 .238.16.398.398.398h1.2c.241 0 .402-.16.402-.398 0-.243-.16-.403-.403-.403zm0 0M15.2 15.8H14c-.238 0-.398.16-.398.4 0 .241.16.402.398.402h1.2c.241 0 .402-.16.402-.403 0-.238-.16-.398-.403-.398zm0 0"/>
</svg>
